library/css/icons/svgs/fi-social-stumbleupon.svg

<svg xmlns="http://www.w3.org/2000/svg" width="100" height="100" viewBox="0 0 100 100"><g fill-rule="evenodd" clip-rule="evenodd"><path d="M80.801 26.084c5.139 6.602 8.199 14.904 8.199 23.916 0 21.536-17.464 39-38.999 39-15.153 0-28.29-8.646-34.746-21.271h16.998c8.1 0 13.758-4.366 13.758-11.345 0-14.791-17.063-8.765-17.063-14.014 0-2.529 2.029-3.449 5.742-3.449h11.83c3.279 0 7.136.588 7.136 4.166v11.787c0 8.535 6.665 12.854 13.573 12.854 7.026 0 13.571-4.319 13.571-12.854v-28.79h.001zM50.001 11c8.136 0 15.687 2.496 21.937 6.756v37.394c0 2.592-2.12 4.713-4.708 4.713-2.591 0-4.709-2.121-4.709-4.713v-11.205c0-8.945-4.527-12.666-10.423-12.666h-19.189c-6.947 0-12.71 4.422-12.71 11.434 0 3.588 1.537 8.846 8.806 10.15 5.921 1.066 8.258.756 8.258 3.924 0 3.076-3.446 3.076-7.995 3.076h-17.007c-.824-3.152-1.261-6.456-1.261-9.863 0-21.531 17.466-39 39.001-39z"/></g></svg>

<?xml version="1.0" encoding="utf-8"?>
<!-- Generator: Adobe Illustrator 17.0.0, SVG Export Plug-In . SVG Version: 6.00 Build 0)  -->
<!DOCTYPE svg PUBLIC "-//W3C//DTD SVG 1.1//EN" "http://www.w3.org/Graphics/SVG/1.1/DTD/svg11.dtd">
<svg version="1.1" id="Layer_1" xmlns="http://www.w3.org/2000/svg" xmlns:xlink="http://www.w3.org/1999/xlink" x="0px" y="0px"
	 width="100px" height="100px" viewBox="0 0 100 100" enable-background="new 0 0 100 100" xml:space="preserve">
<g>
	<path fill-rule="evenodd" clip-rule="evenodd" d="M80.801,26.084C85.94,32.686,89,40.988,89,50c0,21.536-17.464,39-38.999,39
		c-15.153,0-28.29-8.646-34.746-21.271h16.998c8.1,0,13.758-4.366,13.758-11.345c0-14.791-17.063-8.765-17.063-14.014
		c0-2.529,2.029-3.449,5.742-3.449h6.187h5.643c3.279,0,7.136,0.588,7.136,4.166v11.787c0,8.535,6.665,12.854,13.573,12.854
		c7.026,0,13.571-4.319,13.571-12.854V26.084L80.801,26.084z"/>
	<path fill-rule="evenodd" clip-rule="evenodd" d="M50.001,11c8.136,0,15.687,2.496,21.937,6.756V55.15
		c0,2.592-2.12,4.713-4.708,4.713l0,0c-2.591,0-4.709-2.121-4.709-4.713V43.945c0-8.945-4.527-12.666-10.423-12.666
		c-6.4,0-12.794,0-19.189,0c-6.947,0-12.71,4.422-12.71,11.434c0,3.588,1.537,8.846,8.806,10.15
		c5.921,1.066,8.258,0.756,8.258,3.924c0,3.076-3.446,3.076-7.995,3.076H12.261C11.437,56.711,11,53.407,11,50
		C11,28.469,28.466,11,50.001,11L50.001,11z"/>
</g>
</svg>
